svg/Filled/share-display_filled.svg

<svg viewBox="0 0 24 24" xmlns="http://www.w3.org/2000/svg" width="24" height="24"><path d="M14.01 4.16h.1c1.95 0 2.98.03 3.77.44l.17.1-1.2 1.19-.09.1-5.18 5.2a.9.9 0 0 0 1.27 1.27l6.52-6.55.26.44c.4.78.43 1.79.43 3.68l.01.12v3.02q0 .98-.04 1.68v.16a10 10 0 0 1-.12.95v.02a4 4 0 0 1-.26.76l-.02.04-.15.27-.17.25-.03.04a4 4 0 0 1-.84.83l-.03.03a4 4 0 0 1-.53.32l-.16.08-.39.13a9 9 0 0 1-2.18.22l-1.49.01H12.6v.96h2.34a.9.9 0 0 1 0 1.8h-6.6a.9.9 0 0 1 0-1.8h2.46v-.96H7.55a7 7 0 0 1-2.57-.36l-.16-.07a4 4 0 0 1-1.6-1.48l-.15-.27c-.33-.64-.4-1.43-.43-2.73v-3.49q0-1.2.02-2.03l.01-.23.02-.3.02-.2.03-.3.01-.08A5 5 0 0 1 3 6.51l.08-.17a4 4 0 0 1 .32-.52l.02-.04.17-.2.03-.04.15-.17.07-.07a4 4 0 0 1 .7-.55l.28-.15.05-.02.42-.17.11-.03.3-.07.15-.03a7 7 0 0 1 1.06-.1h.07l.58-.01h2.68l2.23-.01zm8.13-3.2c.5 0 .9.4.9.9v4.18a.9.9 0 0 1-1.8-.1v-1.9L19.37 5.9a4 4 0 0 0-1.32-1.22l1.92-1.93h-2.01a.9.9 0 0 1 0-1.8z"/></svg>

<svg viewBox="0 0 24 24" xmlns="http://www.w3.org/2000/svg" width="24" height="24"><path d="M14.01 4.16L14.11 4.16C16.06 4.16 17.09 4.19 17.88 4.6L18.05 4.7L11.58 11.19A.9 .9 0 0 0 12.85 12.46L19.37 5.91L19.63 6.35C20.03 7.13 20.06 8.14 20.06 10.03L20.07 13.17Q20.07 14.15 20.03 14.85L20.03 15.01A10 10 0 0 1 19.91 15.96L19.91 15.98A4 4 0 0 1 19.65 16.74L19.28 17.34A4 4 0 0 1 18.44 18.17L18.41 18.2A4 4 0 0 1 17.88 18.52L17.33 18.73A9 9 0 0 1 15.15 18.95L12.6 18.96L12.6 19.92L14.94 19.92A.9 .9 0 0 1 14.94 21.72L8.34 21.72A.9 .9 0 0 1 8.34 19.92L10.8 19.92L10.8 18.96L7.55 18.96A7 7 0 0 1 4.98 18.6L4.82 18.53A4 4 0 0 1 3.22 17.05L3.07 16.78C2.74 16.14 2.67 15.35 2.64 14.05L2.64 10.56Q2.64 9.36 2.66 8.53L2.75 7.42A5 5 0 0 1 3 6.51L3.08 6.34A4 4 0 0 1 3.4 5.82L3.84 5.3A4 4 0 0 1 4.54 4.75L5.4 4.38L5.85 4.28A7 7 0 0 1 6.91 4.18L12.47 4.16ZM22.14 .96c.5 0 .9.4.9.9v4.18a.9.9 0 0 1-1.8-.1v-1.9L19.37 5.9a4 4 0 0 0-1.32-1.22l1.92-1.93h-2.01a.9.9 0 0 1 0-1.8z"/></svg>
